X: 3
T: The Walls Of Liscarrol
R: jig
M: 6/8
L: 1/8
K: Dmix
dcA AGE | GED D2E | GEE cEE | GAB cde |dcA AGE | GED D2E | GEE cEE | EDD D3:|d2d ecA | d2d ecA | GEE c2c | GAB cde |[1d2d ecA | d2d ecA | GEE cEE |EDD D3:|[2dcA AGE | GED D2E | GEE cEE |EDD D3||


Tune 232	Setting 12931

